X: 39325
T: Tam Lin
R: reel
M: 4/4
K: Bminor
F2GF dFBF|G2BG dGBG|A2cA eAcA|dcBA FBBA|
F2GF dFBF|G2BG dGBG|A2cA eAcA|dcBA FBB2:|
|:bf~f2 dfBf|bf~f2 dfBf|ae~e2 ce~e2|ae~e2 abc'a|
bf~f2 dfBf|bf~f2 dfBF|~G3F GABc|dBcA FBB2:|

